dist/svgs/unicons/line/google.svg

<svg xmlns="http://www.w3.org/2000/svg" data-name="Layer 1" viewBox="0 0 24 24"><path d="M22.60229,10.00391a1.00005,1.00005,0,0,0-.98388-.82227H12.2a.99974.99974,0,0,0-1,1V14.0498a.99974.99974,0,0,0,1,1h3.9624a3.65162,3.65162,0,0,1-1.13183,1.1875A5.0604,5.0604,0,0,1,12.2,17.02246a4.93525,4.93525,0,0,1-4.64624-3.4378L7.55347,13.583a4.90382,4.90382,0,0,1,0-3.167l.00024-.00165A4.9356,4.9356,0,0,1,12.2,6.97754,4.37756,4.37756,0,0,1,15.3313,8.19531a1.00053,1.00053,0,0,0,1.39844-.01562L19.5979,5.31152a.99918.99918,0,0,0-.02539-1.43847A10.62342,10.62342,0,0,0,12.2,1,10.949,10.949,0,0,0,2.37134,7.05878l-.00147.00177A10.92175,10.92175,0,0,0,1.2,12a11.07862,11.07862,0,0,0,1.16992,4.93945l.00147.00177A10.949,10.949,0,0,0,12.2,23a10.5255,10.5255,0,0,0,7.29468-2.687l.00073-.00049.00079-.00085.00019-.00013.00006-.00012a10.78575,10.78575,0,0,0,3.30365-8.08386A12.51533,12.51533,0,0,0,22.60229,10.00391ZM12.2,3a8.68219,8.68219,0,0,1,5.2085,1.67285L15.95483,6.126A6.46322,6.46322,0,0,0,12.2,4.97754,6.88648,6.88648,0,0,0,6.21069,8.52832L5.14148,7.69958l-.585-.45367A8.95257,8.95257,0,0,1,12.2,3ZM3.67944,14.90332a9.02957,9.02957,0,0,1,0-5.80664l1.78223,1.38184a6.85381,6.85381,0,0,0,0,3.042ZM12.2,21A8.9528,8.9528,0,0,1,4.5564,16.75391l.37841-.29352,1.27588-.98969A6.88482,6.88482,0,0,0,12.2,19.02246a7.27662,7.27662,0,0,0,3.30573-.75079L17.19739,19.585A8.88989,8.88989,0,0,1,12.2,21Zm6.52588-2.76074-.183-.142L17.16553,17.028a5.60626,5.60626,0,0,0,1.39966-2.79553.9998.9998,0,0,0-.9834-1.18262H13.2V11.18164h7.54883c.03418.3457.05127.69531.05127,1.0459A9.05156,9.05156,0,0,1,18.72583,18.23926Z"/></svg>

<svg xmlns="http://www.w3.org/2000/svg" data-name="Layer 1" viewBox="0 0 24 24"><path d="M22.602 10.004a1 1 0 00-.984-.822H12.2a1 1 0 00-1 1v3.868a1 1 0 001 1h3.962a3.652 3.652 0 01-1.131 1.187 5.06 5.06 0 01-2.831.785 4.935 4.935 0 01-4.646-3.437v-.002a4.904 4.904 0 010-3.167v-.002A4.936 4.936 0 0112.2 6.978a4.378 4.378 0 013.131 1.217 1 1 0 001.399-.015l2.868-2.868a1 1 0 00-.025-1.439A10.623 10.623 0 0012.2 1a10.949 10.949 0 00-9.829 6.059l-.001.002A10.922 10.922 0 001.2 12a11.079 11.079 0 001.17 4.94l.001.001A10.949 10.949 0 0012.2 23a10.525 10.525 0 007.295-2.687l.001-.001a10.786 10.786 0 003.304-8.084 12.515 12.515 0 00-.198-2.224zM12.2 3a8.682 8.682 0 015.208 1.673l-1.453 1.453A6.463 6.463 0 0012.2 4.978a6.886 6.886 0 00-5.99 3.55L5.142 7.7l-.585-.454A8.953 8.953 0 0112.2 3zM3.68 14.903a9.03 9.03 0 010-5.806l1.782 1.382a6.854 6.854 0 000 3.042zM12.2 21a8.953 8.953 0 01-7.644-4.246l.379-.294 1.276-.99a6.885 6.885 0 005.989 3.552 7.277 7.277 0 003.306-.75l1.691 1.313A8.89 8.89 0 0112.2 21zm6.526-2.76l-.183-.143-1.377-1.069a5.606 5.606 0 001.4-2.796 1 1 0 00-.984-1.182H13.2v-1.868h7.549c.034.345.051.695.051 1.046a9.052 9.052 0 01-2.074 6.011z"/></svg>
